!!!!SEGMENT: pl-kk--kk-i-176--002_ingegneri-marc-antonio--pueri-hebraeorum-portantes.krn
!!!cenid: 17xx:2169
!!!COM: Ingegneri, Marc'Antonio
!!!COM-rismid: pe30005043
!!!CDT: ~1535-1592/07/01
!!!CNT: Italian
!!!OTL: Pueri Hebraeorum portantes
!!!PDT:
!!!AGN: Sacred
!!!SMS-siglum: PL-Kk
!!!SMS-shelfmark: Kk.I.176
!!!SMS-shelfwork: 002 W
!!!SMS-variant:
!!!SMS-altvar:
!!!NIFC-rismid: 1001147317
!!!URL-scan: http://repozytorium.nifc.pl/skany/pl-kk-nut--i-176
!!!ONB-nifc: UWAGA: utwory w zbiorze: 1. Hodie Christus natus est, 2. Pueri Hebraeorum portantes
**kern	**text
*Itenor	*
*I"[Tenore]	*
*I'[T.]	*
*clefC4	*
*k[b-]	*
*g:	*
*M2/1	*
*met(C|)	*
=1-	=1-
!LO:TX:a:t=Dominicâ Palmarum	!
0.G/	Pu-
=2-	=2-
.	.
1G/	-e-
=3-	=3-
!LO:TX:t=P:problem:kreska pseudotaktowa	!
1D/	-ri
1G/	He-
=4-	=4-
1F/	-br(ae)-
1B-\	-o-
=5-	=5-
!LO:TX:t=P:problem:kreska pseudotaktowa	!
1F/	-rum
2r	.
1D/	pu-
=6-	=6-
.	.
2D/	-e-
2.D/	-ri
!LO:TX:t=P:problem:kreska pseudotaktowa	!
4E/	.
=7-	=7-
4F/	.
4G/	.
!LO:TX:t=P:problem:kreska pseudotaktowa	!
2A/	.
*2\right	*
2d\	He-
2d\	-br(ae)-
=8-	=8-
2.d\	-o-
4c\	.
4B-\	.
4A\	.
4G/	.
!LO:TX:t=P:problem:kreska pseudotaktowa	!
4A/	.
!!LO:LB:g=original
=9-	=9-
2.B-/	.
4A\	.
1G/	.
=10-	=10-
!LO:TX:t=P:problem:kreska pseudotaktowa	!
0d\	-rum
=11-	=11-
1D/	por-
0F/	-tan-
=12-	=12-
.	.
!LO:TX:t=P:problem:kreska pseudotaktowa	!
1A\	-tes
=13-	=13-
1B-\	ra-
1A\	-mos
=14-	=14-
1B-\	o-
1F/	-li-
=15-	=15-
2.B-\	-va-
4A\	.
1G/	-rum
=16-	=16-
!LO:TX:t=P:problem:kreska pseudotaktowa	!
1D/	.
2r	.
2B-\	ob-
=17-	=17-
2d\	-via-
2c\	-ve-
1d\	-runt
=18-	=18-
!LO:TX:t=P:problem:kreska pseudotaktowa	!
1B-\	.
1c\	Do-
=19-	=19-
1B-\	.
1A\	-mi-
=20-	=20-
4G/	.
4A/	.
4B-/	-no
4c/	.
0d\	.
=21-	=21-
.	.
!!LO:PB:g=original
00r	.
=22-	=22-
.	.
=23-	=23-
.	.
00r	.
=24-	=24-
.	.
=25-	=25-
.	.
1r	.
=26-	=26-
1B-\	cla-
2.F/	-man-
4G/	.
=27-	=27-
4A/	.
4B-/	.
2c\	-tes
2G/,	.
2B-\	cla-
=28-	=28-
!LO:TX:t=P:problem:kreska pseudotaktowa	!
1F/	-man-
2c\	-tes
2c\	cla-
=29-	=29-
!LO:SIC:v:l:s=-man-	!
4G/	-ma-
4A/	.
4B-/	.
4c/	.
1d\	.
=30-	=30-
2.A\	.
4B-\	.
1c\	.
=31-	=31-
!LO:TX:t=P:problem:kreska pseudotaktowa	!
1G/	-tes
*	*ij
1G/	cla-
=32-	=32-
!LO:SIC:v:l:s=-man-	!
1F/	-ma-
*	*Xij
1C/	.
=33-	=33-
1F/	.
2B-\	et
!LO:TX:t=P:problem:kreska pseudotaktowa	!
2B-\	di-
=34-	=34-
0E-X/	-cen-
=35-	=35-
!LO:TX:t=P:problem:kreska pseudotaktowa	!
1B-\	-tes
0r	.
=36-	=36-
.	.
1F/	O-
=37-	=37-
1G/	-san-
1F/	-na
=38-	=38-
2B-\	in
2G/	ex-
1d\	-cel-
=39-	=39-
!LO:TX:t=P:problem:kreska pseudotaktowa	!
1c\	-sis
1r	.
=40-	=40-
1F/	O-
1B-\	-san-
=41-	=41-
!LO:TX:t=P:problem:kreska pseudotaktowa	!
1A\	-na
2r	.
*	*ij
2D/	O-
=42-	=42-
1G/	-san-
2F/,	-na
*	*Xij
2F/	O-
=43-	=43-
1B-\	-san-
2G/	-na
1G/	in
=44-	=44-
.	.
2G/	ex-
1D/	-cel-
=45-	=45-
00G/;	-si
=46-	=46-
.	.
=47||-	=47||-
*M2/1	*
*met(C|)	*
1d\	Pu-
1B-\	-e-
=48-	=48-
1B-\	-ri
!LO:TX:t=P:problem:kreska pseudotaktowa	!
1A\	.
=49-	=49-
1G/	He-
!!LO:LB:g=original
1G/	-br(ae)-
=50-	=50-
1F/	-o-
1G/	.
=51-	=51-
1A\	-rum
!LO:TX:t=P:problem:kreska pseudotaktowa	!
1A\	.
=52-	=52-
1r	.
1.D/	ves-
=53-	=53-
.	.
2D/	-ti-
1G/	-men-
=54-	=54-
2D/	-ta
!LO:TX:t=P:problem:kreska pseudotaktowa	!
2F/	pros-
2B-\	-ter-
1B-\	-ne-
=55-	=55-
.	.
2A\	-bant
1B-\	in
=56-	=56-
1G/	vi-
0F/	-a
=57-	=57-
!LO:TX:t=P:problem:kreska pseudotaktowa	!
.	.
1B-\	et
=58-	=58-
1F/	cla-
1f\	-ma-
=59-	=59-
1f\	-bant
!LO:TX:t=P:problem:kreska pseudotaktowa	!
1B-\	di-
=60-	=60-
2.e\	-cen-
4d\	.
00c\	.
=61-	=61-
.	.
=62-	=62-
.	.
!LO:TX:t=P:problem:kreska pseudotaktowa	!
1B-X\	-tes
!!LO:LB:g=original
=63-	=63-
1r	.
1B-\	et
=64-	=64-
0G/	cla-
=65-	=65-
1A\	-ma-
2F/	-bant
2F/	di-
=66-	=66-
2.B-\	-cen-
4A\	.
1G/	.
=67-	=67-
!LO:TX:t=P:problem:kreska pseudotaktowa	!
1D/	-tes
2r	.
2G/	O-
=68-	=68-
1d\	-san-
!LO:TX:t=P:problem:kreska pseudotaktowa	!
1d\	-na
=69-	=69-
2r	.
*	*ij
2G/	O-
1d\	-san-
=70-	=70-
!LO:TX:t=P:problem:kreska pseudotaktowa	!
1G/	-na
*	*Xij
2r	.
2.F/	Fi-
=71-	=71-
.	.
4G/	-lio
2A/	.
2.G/	Da-
4A/	.
=72-	=72-
1B-\	.
0F/	-vid
=73-	=73-
!LO:TX:t=P:problem:kreska pseudotaktowa	!
.	.
2r	.
2G/	O-
=74-	=74-
1d\	-san-
!LO:TX:t=P:problem:kreska pseudotaktowa	!
1d\	-na
!!LO:LB:g=original
=75-	=75-
2r	.
*	*ij
2G/	O-
1d\	-san-
=76-	=76-
!LO:TX:t=P:problem:kreska pseudotaktowa	!
1G/	-na
*	*Xij
2r	.
2.F/	Fi-
=77-	=77-
.	.
4G/	-lio
2A/	.
2.G/	Da-
4A/	.
=78-	=78-
1B-\	.
0F/;	-vid
=79-	=79-
.	.
=80||-	=80||-
*M3/1	*
!LO:TX:a:t=5.	!
00r	.
=81-	=81-
.	.
=82-	=82-
00r	.
=83-	=83-
.	.
=84-	=84-
0r	.
=85-	=85-
0B-\	Be-
!LO:TX:t=P:problem:kreska pseudotaktowa	!
1A\	-ne-
=86-	=86-
0G/	-di-
!LO:TX:t=P:problem:kreska pseudotaktowa	!
1D/	-ctus
=87-	=87-
1E-X/	qui
!LO:TX:t=P:problem:kreska pseudotaktowa	!
0D/	ve-
=88-	=88-
1G/	-nit
1G/	in
1.D/	no-
=89-	=89-
.	.
2Eny/	-mi-
1F/	-ne
!LO:TX:t=P:problem:kreska pseudotaktowa	!
1F/	Do-
!!LO:LB:g=original
=90-	=90-
1C/	-mi-
!LO:TX:t=P:problem:kreska pseudotaktowa	!
0F/	-ni
=91-	=91-
.	.
!LO:TX:a:t=1.	!
0r	.
=92-	=92-
1r	.
1r	.
0G/	in
=93-	=93-
.	.
*col	*
1.D/	no-
!LO:TX:t=P:problem:kreska pseudotaktowa	!
2E/	-mi-
*Xcol	*
=94-	=94-
1F/	-ne
0BB-/	Do-
=95-	=95-
1C/	-mi-
0D/	-ni
=96-	=96-
*M2/1	*
*met(C|)	*
1G/	In
2.d\	no-
4c\	-mi-
=97-	=97-
!LO:TX:t=P:problem:kreska pseudotaktowa	!
1B-\	-ne
1G/	.
=98-	=98-
1.C/	Do-
!LO:TX:t=P:problem:kreska pseudotaktowa	!
2C/	-mi-
=99-	=99-
00G/;	-ni
=-	=-
*-	*-
!!!EED: Leszek Kubiak
!!!EST: 2021-04-08
!!!ENC: Anastazja Marusiak
!!!END: 2021-03-18
